X: 385
T: A Thousand Farewells
R: slide
M: 12/8
K: Dmajor
e|dAF ~E3|DB,A, A,B,D|FEF BAF|dAF EFA|
dAF ~E3|DB,A, A,B,D|~F3 BAF|EDC D2:|
e|dcd fef|afd edA|BAF DFA|BAF EFA|
dcd ~f3|afd edA|BdB AFA|Bdc d2:|

